X: 1
T: Mike to the Rescue
C: Andrea Beaton
N: Presented by Andrea Beaton, Boston Harbor Scottish Fiddle School, August 2011
S: printed copy in Concord Slow Scottish Session collection
R: reel
Z: 2015 John Chambers <jc:trillian.mit.edu>
M: C|
L: 1/8
K: D
%%staffsep 40
|:\
D2FE FDDF | ABdA B2AB | defb afef | dBAF E/E/E EF | D2FE FDDF | ABdA B2AB |
defb afef |[1 dBAF D/D/D DA, :|[2 dBAF D/D/D Dg |: faag fedB | ABcA B2AB | defb afef |
[1 dBAF E/E/E Eg | faag fedB | ABdA B2AB | defb afef | dBAF D/D/D Dg :|
[2 dBAF E/E/E EF | D2FE FDDF | ABdA B2AB | defb afef | dBAF D/D/D D2 |]
